X: 55
T:-Weindia Little
M:4/4
L:1/8
Q:120
K:D
B|A2A2FGAF|EDCD EFGE|D2D-E FGAF|ABde fd d:|
e|fgfe f-ga2|ecAc e-fg2|faef d-BA-F|ABde fdde|
fgfe fgaf|edcd efge|afge d-BA-F|Adfe fdd||
